X:1
T:Parla,timida
T:Parla, timida
T:Giovanni Brachrogge
T:Source :Madrigaletti a 3 voci---Libro I---Copenhagen---H.Waldkirch---1619. Editor : André Vierendeels (20/03/14).
C:Giovanni Brachrogge
%%score [ 1 2 3 ]
L:1/8
Q:1/4=88
M:2/2
K:F
V:1 treble nm="Soprano" snm="S"
V:2 treble-8 nm="Tenor" snm="T"
V:3 bass nm="Bass" snm="B"
V:1
 d6 G2 | B6 AG | A2 G2 z2 FG | A2 AG ^F4 | G2 Bc d2 dB | A6 G2 | ^FFFF B2 A2 | B2 Bd ^FGAB | %8
w: Par- la,|ti- mi- da|lin- gua, e pa-|le- sa l'ar- do-|re, e pa- le- sa l'ar-|do- *|re, che mi tor- men- ta'il|co- re, che mi tor- men- ta'il|
 ^F2 G4 F2 | G8 :: c8 | d4 A4- | A2 G2 z4 | z2 dd d4- | dcde f2 f2- | f2 B2 B2 A2 | B4 z2 FF | %17
w: co- * *|re,|ah,|ah, ta-|* ci,|che lo sguar-|* do sco- pri- ra, com'|_ io ar- *|do, che lo|
 F4- FEFG | A4 A2 B2 | c8 | =B8 :| %21
w: sguar- * do sco- pri-|ra, com' io|ar-|do,|
V:2
 z4 g4- | g2 d2 g2 fe | d4 d2 d2- | d2 A2 d2 dc | B2 G2 B2 A2 | d2 cB ^c d2 c | dAAA d2 d2 | %7
w: Par-|* la, ti- mi- da|lin- gua, par-|* la, ti- mi- da|lin- gua, e pa-|le- sa l'ar- do- * *|re, che mi tor- men- ta'il|
 d2 dd AAAG | d2 c/B/A/G/ A4 | G8 :: A8 | B4 ^F4- | F2 G2 z2 BB | B4- BABc | d4 A4- | A2 G2 _e4 | %16
w: co- re, che mi tor- men- ta'il|co- * * * * *|re,|ah,|ah, ta-|* ci, che lo|sguar- * do sco- pri-|ra, com'|_ io ar-|
 d2 dd d4- | dcde f4 | d6 g2 | g2 ^fe f4 | g8 :| %21
w: do, che lo sguar-|* do sco- pri- ra,|com' io|ar- * * *|do,|
V:3
 z8 | z4 z2 D,2- | D,2 G,,2 B,,2 A,,G,, | D,8 | G,,4 z2 D,D, | F,2 E,D, E,4 | D,4 z D,D,D, | %7
w: |Par-|* la, ti- mi- da|lin-|gua, e pa-|le- sa l'ar- do-|re, che mi tor-|
 G,3 =B,, D,2 C,2 |"^-natural" B,,2 G,,2 D,4 | G,,8 :: F,,8 | B,,4 D,4- | D,2 G,2 z2 G,G, | %13
w: men- ta'il co- *||re,|ah,|ah, ta-|* ci, che lo|
 G,4- G,F,G,A, | B,4 D,4- | D,2 _E,2 C,4 | B,,2 B,,B,, B,,4- | B,,A,,B,,C, D,4 | ^F,,6 B,,2 | %19
w: sguar- * do- sco- pri-|ra, com'|_ io ar-|do, che lo sguar-|* do sco- pr- ra,|com' io|
 A,,8 | G,,8 :| %21
w: ar-|do,|

